X:316
T:B316-  My lodging is on the Cold Ground
S:(2nd/2)
Q:1/4=120
L:1/8
M:6/8
K:F
(A3/G/)|F3/2G/F (FA)c|(Bdf) g2(e3/4d/4)|\
(c3/2B/)A GFG|A3z(A3/2G/)|(F3/2G/)F (FA)c|(Bdf)f2(e3/4d/4|\
(cf)A (G3/2F/)G|F3z2(c3/4B/4)|\
A2ff2z|(c/A3/2f) f2 (e3/4d/4)|c3/2B/A (GF)G|A3z(A3/2G/)|\
F3/2G/F (FA)c|(Bdf) .f2 (e3/4d/4)|(c3/2f/)A G3/2F/G|(F3F2)|]

